public/logos/cocacola.svg

<?xml version="1.0" encoding="utf-8"?>
<svg xmlns="http://www.w3.org/2000/svg" fill="none" height="100%" overflow="visible" preserveAspectRatio="none" style="display: block;" viewBox="0 0 96 30" width="100%">
<g id="Coca cola">
<path d="M67.2513 2.30365C67.2513 2.30365 65.4518 3.01736 63.3588 5.31554C61.2659 7.61373 60.0469 10.198 60.949 10.8853C61.2955 11.1465 62.0946 11.1963 63.5445 9.89014C64.8826 8.73268 65.933 7.28174 66.6129 5.65141C67.5494 3.37655 67.2513 2.33164 67.2513 2.30676M78.7055 6.4382C76.38 5.25024 74.6804 3.79483 72.9121 2.89452C71.2249 2.03154 70.1339 1.6708 68.7699 1.85272C68.5796 1.88652 68.3919 1.93327 68.208 1.99267C68.208 1.99267 68.9103 4.38259 66.1151 8.39741C63.2839 12.4682 60.7149 12.4402 59.9845 11.3222C59.2197 10.142 60.2077 7.73656 61.8574 5.59543C63.5851 3.35634 66.6192 1.49975 66.6192 1.49975C66.6192 1.49975 65.6515 0.910438 63.2761 2.25234C60.9584 3.55537 56.9692 6.66522 53.2671 11.91C49.565 17.1548 48.8315 20.0407 48.3008 22.3124C47.7702 24.5842 48.2525 27.0177 50.7809 27.0177C53.3092 27.0177 56.2528 23.1754 57.0831 21.8397C58.6267 19.3519 59.6333 15.5361 57.5326 16.0601C56.4978 16.3182 55.6597 17.4595 55.1306 18.5589C54.7966 19.2649 54.5412 20.0054 54.369 20.7668C53.6349 21.0683 52.9455 21.4679 52.3197 21.9548C51.6236 22.4685 50.973 23.0408 50.3751 23.6652C50.3751 23.6652 50.3844 21.8491 51.8375 18.9103C53.2905 15.9715 55.9578 14.6296 57.4686 14.5036C58.8296 14.3948 60.601 15.5454 59.0996 19.7904C57.5981 24.0353 53.1688 29.1961 48.5162 29.2599C44.2227 29.3189 41.4133 23.8596 47.3894 14.3326C54.0038 3.80726 61.7622 0.577684 64.2812 0.218496C66.8002 -0.140692 67.6196 0.966415 67.6196 0.966415C69.136 0.34663 70.7737 0.0776154 72.4095 0.179622C75.4857 0.386428 77.8643 2.55555 81.0045 4.07938C80.1882 4.85684 79.4094 5.67318 78.7071 6.4382M92.5258 2.89452C90.3938 4.25664 87.444 5.49125 84.6098 5.22691C83.8918 5.9655 83.1239 6.82071 82.3545 7.75367C87.2693 8.72239 91.5753 5.68873 93.8649 3.10599C94.6996 2.17741 95.4167 1.1502 96 0.0474536C94.9576 1.12913 93.791 2.08474 92.5242 2.89452M85.9801 16.6898C86.0173 16.6253 86.0477 16.557 86.0706 16.4861C86.056 16.374 86.0033 16.2702 85.9212 16.1921C85.8391 16.1141 85.7327 16.0663 85.6196 16.057C85.1513 16.0352 84.513 16.1238 82.8383 17.9711C81.4491 19.4966 80.2534 21.1865 79.2783 23.0028C78.32 24.7475 77.9314 26.0474 78.4823 26.3832C78.6613 26.4756 78.8689 26.4967 79.0629 26.4423C79.4359 26.3537 79.8589 26.0054 80.5019 25.2637C80.8031 24.9154 81.1371 24.4225 81.5367 23.8767C82.6448 22.3746 85.4291 17.6461 85.9801 16.6898ZM68.5841 18.6988C68.8635 17.9711 69.2194 16.5421 68.4796 15.9808C67.6852 15.3852 65.6593 16.7831 65.6484 18.2168C65.6344 19.6846 67.0749 20.3486 67.4198 20.4419C67.6165 20.4947 67.6852 20.487 67.7804 20.3299C68.0859 19.8054 68.3545 19.2604 68.5841 18.6988ZM67.0515 21.3686C66.5495 21.1377 66.0812 20.84 65.6593 20.4839C65.2363 20.1303 64.8828 19.7017 64.6168 19.2197C64.5887 19.173 64.5606 19.2088 64.5294 19.2508C64.4981 19.2928 64.3733 19.4063 63.2933 20.983C62.2132 22.5597 60.5542 25.8266 62.0556 26.3832C63.017 26.7393 64.6168 25.0616 65.4892 23.9498C66.0836 23.1738 66.6224 22.357 67.1014 21.5054C67.1467 21.4106 67.1014 21.3888 67.0531 21.3686M84.0838 25.1424C83.6764 25.7924 83.2113 27.0394 84.552 26.2635C86.1923 25.3197 88.5288 21.7884 88.5288 21.7884H89.5885C88.6242 23.2656 87.5506 24.6689 86.3765 25.9867C84.7143 27.8215 82.6869 29.4884 81.2589 29.3236C79.5904 29.1292 80.1133 26.9477 80.1133 26.9477C80.1133 26.9477 77.7269 29.4791 76.0757 29.2972C73.8454 29.0515 74.5259 26.3055 74.5259 26.3055C74.5259 26.3055 72.0037 29.3889 70.2853 29.2941C67.5915 29.1386 68.2689 25.8732 69.018 23.5735C69.4191 22.3435 69.7906 21.3779 69.7906 21.3779C69.7906 21.3779 69.5237 21.4479 68.9494 21.5334C68.6497 21.5754 68.1034 21.6065 68.1034 21.6065C68.1034 21.6065 66.9813 23.5782 66.0838 24.763C65.1864 25.9479 61.372 30.0327 59.1277 29.2148C57.0519 28.4591 57.7386 25.2932 58.9466 22.7774C60.7102 19.1093 65.6703 13.8397 68.5311 14.5363C71.4965 15.2531 68.5982 20.644 68.5982 20.644C68.5982 20.644 68.5982 20.6642 68.6294 20.6782C68.6887 20.7 68.8432 20.7171 69.2006 20.6471C69.571 20.5719 69.934 20.4641 70.2853 20.3252C70.2853 20.3252 73.2663 14.1055 76.5595 10.0363C79.8526 5.96706 86.4218 -1.04099 89.0001 0.653875C89.6244 1.0706 89.3435 2.50579 88.4944 4.24731C88.112 4.37107 87.7234 4.47487 87.3301 4.55829C87.8982 3.53049 88.2744 2.66439 88.3867 2.05953C88.7754 -0.0427322 83.8481 4.39192 80.3271 9.15621C78.2062 12.0284 76.322 15.0668 74.6929 18.2416C75.3289 17.8552 75.9361 17.4233 76.5096 16.9495C78.0801 15.6521 79.5727 14.2637 80.9795 12.7916C82.3342 11.4099 83.6048 9.94878 84.7846 8.41607C85.1594 8.39801 85.533 8.35959 85.9036 8.301C84.6173 10.0404 83.2146 11.6913 81.7052 13.2426C80.3006 14.6575 78.7804 16.1798 77.46 17.2854C76.2807 18.2846 75.0367 19.2055 73.7361 20.0423C73.7361 20.0423 70.6568 26.2293 72.3315 26.6258C73.3163 26.8622 75.261 23.8783 75.261 23.8783C75.261 23.8783 77.7987 20.0205 79.3282 18.2805C81.4149 15.917 83.2113 14.5487 85.0062 14.5238C86.0519 14.5052 86.6684 15.6123 86.6684 15.6123L87.16 14.8535H90.1878C90.1878 14.8535 84.5333 24.4132 84.0807 25.1331M92.5242 2.89452C90.3923 4.25664 87.4425 5.49125 84.6082 5.22691C83.8903 5.9655 83.1224 6.82071 82.3529 7.75367C87.2677 8.72239 91.5738 5.68873 93.8634 3.10599C94.6986 2.17749 95.4162 1.15029 96 0.0474536C94.9576 1.12913 93.791 2.08474 92.5242 2.89452ZM50.002 7.58418H47.1225L45.4947 10.2042H48.3742L50.002 7.58418ZM36.3675 16.6572C37.5927 14.9841 40.9732 9.12045 40.9732 9.12045C40.9589 9.00845 40.9065 8.90472 40.8247 8.8266C40.7429 8.74849 40.6366 8.70072 40.5237 8.69129C40.0555 8.66952 39.2751 8.82657 37.7253 10.7593C36.1755 12.6921 34.9722 14.2299 34.0951 15.83C33.1336 17.5761 32.7138 18.8076 33.2663 19.1419C33.4456 19.2314 33.6516 19.2525 33.8453 19.201C34.2043 19.1109 34.6741 18.7517 35.3187 18.0131C35.6215 17.6679 35.9648 17.203 36.3675 16.6572ZM20.9162 8.72705C20.1202 8.12841 18.096 9.52939 18.085 10.9599C18.0726 12.4293 19.9064 12.8787 20.1437 12.8896C20.2134 12.8954 20.2834 12.8808 20.345 12.8476C20.3873 12.823 20.4211 12.7861 20.4418 12.7419C20.6574 12.3198 20.8512 11.8869 21.0223 11.4451C21.3017 10.7174 21.656 9.28838 20.9162 8.72705ZM19.716 13.7852C19.1672 13.6144 18.6426 13.374 18.1553 13.07C17.683 12.7632 17.299 12.3394 17.0409 11.84C17.0128 11.7934 16.9816 11.8291 16.9535 11.8711C16.9254 11.9131 16.7631 12.1152 15.68 13.6982C14.5968 15.2811 12.9924 18.5184 14.4954 19.0751C15.4537 19.4374 17.0721 17.7456 17.9508 16.6385C18.6084 15.7685 19.216 14.8621 19.7706 13.9236C19.8065 13.8288 19.7706 13.807 19.7176 13.7899M43.2347 14.7602H44.2898C44.2898 14.7602 39.0036 22.3793 36.0179 22.0248C34.351 21.8304 34.8458 19.781 34.8458 19.781C34.8458 19.781 32.5047 22.5115 30.354 21.9579C28.4031 21.4588 29.6626 18.2261 29.6626 18.2261C29.4409 18.3147 25.2192 23.0557 22.2522 21.919C19.1479 20.7249 20.7601 16.7551 21.3501 15.561C21.8511 14.5549 22.4052 13.5753 22.4052 13.5753C22.4052 13.5753 21.9291 13.709 21.6248 13.7775C21.3204 13.8459 20.8803 13.9329 20.8803 13.9329C20.8803 13.9329 19.4117 16.3104 18.5142 17.4968C17.6168 18.6832 13.8024 22.7603 11.5549 21.9486C9.30748 21.1369 9.86466 18.0037 11.1273 15.5159C13.175 11.4808 18.0335 6.52217 20.9599 7.27475C23.9159 8.02578 21.4687 12.8025 21.4687 12.8025C21.4687 12.8025 22.0571 12.8787 23.4665 11.9209C25.4954 10.5417 28.1736 6.8316 31.0735 7.26698C32.4407 7.47223 33.7142 8.86389 31.9725 11.5073C31.4168 12.3563 30.4851 13.1151 29.7718 12.364C29.327 11.8975 29.7156 11.047 30.1823 10.4655C30.3639 10.2284 30.6013 10.0395 30.8734 9.91527C31.1456 9.79109 31.4442 9.73547 31.743 9.7533C31.743 9.7533 32.2222 8.66486 31.0032 8.6804C30.0169 8.69906 27.5197 10.9895 26.1103 13.3032C24.8181 15.4272 22.8593 19.0455 24.8259 19.8339C26.6285 20.5585 30.059 16.5017 31.6478 14.3761C33.2366 12.2505 36.8576 7.43335 39.8947 7.24054C40.9404 7.17213 41.5632 8.12219 41.5632 8.12219L41.9143 7.56863H44.9515C44.9515 7.56863 39.2314 17.0786 38.7851 17.7985C38.4339 18.3614 37.9672 19.6271 39.2533 18.918C40.5393 18.209 43.2347 14.7602 43.2347 14.7602ZM41.5819 29.9984C39.3456 28.4562 36.6678 27.6777 33.9499 27.7796C33.2143 27.7996 32.4937 27.992 31.8467 28.3413C31.1997 28.6906 30.6445 29.187 30.226 29.7901C29.0679 27.7765 26.7783 26.5403 23.2386 26.5683C17.5185 26.6336 11.8452 29.2614 7.35032 29.2583C3.0427 29.2583 -0.0990597 26.5605 0.00238798 21.7698C0.191237 13.3623 7.32223 5.79135 12.6443 2.38451C15.7127 0.426856 18.2786 -0.154687 19.9564 0.0334593C21.18 0.168738 22.6518 1.5775 21.7231 3.65333C20.359 6.68699 18.4752 6.4382 18.5455 4.98745C18.5845 4.04361 19.215 3.44963 19.6895 3.12154C19.9907 2.91474 20.5229 2.85565 20.8007 2.84943C21.0707 2.62241 21.2689 0.96175 19.0839 1.50753C16.8989 2.05331 14.2456 4.19911 11.7266 6.97154C9.20759 9.74397 5.28547 14.9841 4.31626 20.487C3.86364 23.0386 4.16018 27.6925 10.233 27.6396C15.3834 27.5976 22.9748 24.2188 29.9513 24.2888C32.6592 24.3152 35.0159 25.0429 36.8529 26.1718C38.6571 27.2789 40.8203 28.896 41.5881 30" fill="var(--fill-0, #9FA3AE)" id="Vector"/>
</g>
</svg>

<svg xmlns="http://www.w3.org/2000/svg" fill="none" overflow="visible" preserveAspectRatio="none" style="display:block" viewBox="0 0 96 30"><path fill="var(--fill-0, #9fa3ae)" d="M67.251 2.304s-1.8.713-3.892 3.012c-2.093 2.298-3.312 4.882-2.41 5.57.346.26 1.146.31 2.596-.996a11.4 11.4 0 0 0 3.068-4.239c.936-2.274.638-3.32.638-3.344m11.454 4.131C76.38 5.25 74.68 3.795 72.913 2.895c-1.687-.863-2.778-1.224-4.142-1.042a4 4 0 0 0-.562.14s.702 2.39-2.093 6.404c-2.831 4.071-5.4 4.043-6.13 2.925-.765-1.18.223-3.585 1.872-5.727C63.585 3.356 66.62 1.5 66.62 1.5s-.968-.59-3.343.752c-2.318 1.303-6.307 4.413-10.009 9.658s-4.436 8.13-4.966 10.402-.049 4.706 2.48 4.706 5.472-3.843 6.302-5.178c1.544-2.488 2.55-6.304.45-5.78-1.035.258-1.873 1.4-2.402 2.499-.334.706-.59 1.446-.762 2.208a8.8 8.8 0 0 0-2.05 1.188 15 15 0 0 0-1.944 1.71s.01-1.816 1.462-4.755c1.453-2.938 4.12-4.28 5.632-4.406 1.36-.11 3.132 1.041 1.63 5.286-1.5 4.245-5.93 9.406-10.583 9.47-4.293.059-7.103-5.4-1.127-14.927C54.004 3.807 61.762.578 64.281.218s3.339.748 3.339.748A10.9 10.9 0 0 1 72.41.18c3.076.206 5.454 2.376 8.594 3.9a50 50 0 0 0-2.297 2.358m13.819-3.543c-2.132 1.362-5.082 2.596-7.916 2.332a42 42 0 0 0-2.255 2.527c4.914.968 9.22-2.065 11.51-4.648A15.2 15.2 0 0 0 96 .047a19.2 19.2 0 0 1-3.476 2.848M85.98 16.69a1 1 0 0 0 .09-.204.494.494 0 0 0-.45-.429c-.469-.022-1.107.067-2.782 1.914a25 25 0 0 0-3.56 5.032c-.958 1.744-1.347 3.044-.796 3.38a.8.8 0 0 0 .58.06c.374-.09.797-.438 1.44-1.18.301-.348.635-.84 1.035-1.386 1.108-1.502 3.892-6.23 4.443-7.187m-17.396 2.009c.28-.728.635-2.157-.104-2.718-.795-.596-2.82.802-2.832 2.236-.014 1.468 1.427 2.132 1.772 2.225.197.053.265.045.36-.112q.46-.788.804-1.631m-1.532 2.67a6.1 6.1 0 0 1-1.393-.885 4.5 4.5 0 0 1-1.042-1.264c-.028-.047-.056-.011-.088.03-.03.043-.156.156-1.236 1.733s-2.739 4.844-1.237 5.4c.961.356 2.56-1.321 3.433-2.433a21 21 0 0 0 1.612-2.445c.046-.094 0-.116-.048-.136m17.03 3.773c-.407.65-.872 1.897.469 1.122 1.64-.944 3.977-4.476 3.977-4.476h1.06a35.4 35.4 0 0 1-3.213 4.199c-1.662 1.835-3.69 3.501-5.117 3.337-1.669-.195-1.146-2.376-1.146-2.376s-2.386 2.531-4.037 2.35c-2.23-.246-1.55-2.992-1.55-2.992s-2.522 3.083-4.24 2.988c-2.695-.155-2.017-3.42-1.268-5.72.401-1.23.773-2.196.773-2.196s-.267.07-.842.155c-.3.042-.846.073-.846.073s-1.122 1.972-2.02 3.157-4.711 5.27-6.955 4.452c-2.076-.756-1.39-3.922-.181-6.438 1.763-3.668 6.723-8.937 9.584-8.24 2.965.716.067 6.107.067 6.107s0 .02.031.034c.06.022.214.04.572-.03a6.4 6.4 0 0 0 1.084-.323s2.981-6.22 6.275-10.289C79.853 5.967 86.422-1.04 89 .654c.624.417.344 1.852-.506 3.593q-.573.186-1.164.311c.568-1.028.944-1.894 1.057-2.498.388-2.103-4.539 2.332-8.06 7.096a66 66 0 0 0-5.634 9.086 15.4 15.4 0 0 0 1.817-1.293 52 52 0 0 0 4.47-4.157 49 49 0 0 0 3.805-4.376 10 10 0 0 0 1.119-.115 48 48 0 0 1-4.199 4.942c-1.404 1.415-2.925 2.937-4.245 4.042q-1.771 1.5-3.724 2.757s-3.08 6.187-1.404 6.584c.984.236 2.929-2.748 2.929-2.748s2.538-3.858 4.067-5.597c2.087-2.364 3.883-3.732 5.678-3.757 1.046-.019 1.662 1.088 1.662 1.088l.492-.758h3.028s-5.655 9.56-6.107 10.28m8.443-22.24c-2.132 1.363-5.082 2.597-7.916 2.333a42 42 0 0 0-2.255 2.527c4.915.968 9.22-2.065 11.51-4.648A15.2 15.2 0 0 0 96 .047a19.2 19.2 0 0 1-3.476 2.848m-42.522 4.69h-2.88l-1.627 2.62h2.88zm-13.635 9.073c1.226-1.673 4.606-7.537 4.606-7.537a.49.49 0 0 0-.45-.429c-.468-.021-1.248.136-2.798 2.068-1.55 1.933-2.753 3.47-3.63 5.071-.961 1.746-1.381 2.978-.829 3.312.18.09.386.11.58.059.358-.09.828-.45 1.473-1.188.302-.345.646-.81 1.048-1.356m-15.45-7.93c-.797-.599-2.821.802-2.832 2.233-.012 1.47 1.821 1.919 2.059 1.93.07.005.14-.01.201-.042a.24.24 0 0 0 .097-.106q.324-.633.58-1.297c.28-.728.634-2.157-.106-2.718m-1.201 5.058a6.7 6.7 0 0 1-1.56-.715 3.24 3.24 0 0 1-1.115-1.23c-.028-.047-.06-.01-.088.031-.028.042-.19.244-1.273 1.827s-2.688 4.82-1.185 5.377c.959.362 2.577-1.33 3.456-2.436a29 29 0 0 0 1.82-2.715c.035-.095 0-.117-.053-.134m23.517.97h1.055s-5.286 7.62-8.272 7.265c-1.667-.195-1.172-2.244-1.172-2.244s-2.341 2.73-4.492 2.177c-1.95-.5-.691-3.732-.691-3.732-.222.089-4.444 4.83-7.41 3.693-3.105-1.194-1.493-5.164-.903-6.358a49 49 0 0 1 1.055-1.986s-.476.134-.78.203c-.305.068-.745.155-.745.155s-1.468 2.377-2.366 3.564c-.897 1.186-4.712 5.263-6.96 4.452-2.247-.812-1.69-3.945-.427-6.433 2.048-4.035 6.906-8.994 9.833-8.241 2.956.75.509 5.528.509 5.528s.588.076 1.997-.882c2.03-1.38 4.708-5.09 7.607-4.654 1.368.205 2.641 1.597.9 4.24-.556.85-1.488 1.608-2.201.857-.445-.466-.056-1.317.41-1.899a1.83 1.83 0 0 1 1.561-.712s.48-1.088-.74-1.073c-.986.02-3.483 2.31-4.893 4.623-1.292 2.124-3.25 5.743-1.284 6.53 1.802.726 5.233-3.331 6.822-5.457s5.21-6.943 8.247-7.135c1.045-.069 1.668.881 1.668.881l.351-.553h3.038s-5.72 9.51-6.167 10.23c-.351.562-.818 1.828.468 1.119s3.982-4.158 3.982-4.158m-1.653 15.238a12.6 12.6 0 0 0-7.632-2.218 4.7 4.7 0 0 0-3.724 2.01c-1.158-2.014-3.448-3.25-6.987-3.222-5.72.066-11.394 2.693-15.889 2.69-4.307 0-7.45-2.697-7.348-7.488.19-8.408 7.32-15.979 12.642-19.385C15.713.427 18.28-.155 19.956.033c1.224.136 2.696 1.545 1.767 3.62-1.364 3.034-3.248 2.785-3.177 1.334.038-.943.669-1.537 1.143-1.865.302-.207.834-.266 1.112-.273.27-.227.468-1.887-1.717-1.341-2.185.545-4.838 2.691-7.357 5.464-2.52 2.772-6.442 8.012-7.41 13.515-.453 2.552-.157 7.206 5.916 7.153 5.15-.042 12.742-3.421 19.718-3.351 2.708.026 5.065.754 6.902 1.883 1.804 1.107 3.967 2.724 4.735 3.828"/></svg>
